!!!OTL: 2f. Christinchen, die Ungluecksbraut.
!!!ODT: 1890
!!!ARE: Europa, Mitteleuropa, Deutschland, Nieder - Hessen
!!!SCT: E0002F
!!!TXL: @@DE
!!!YEM: Copyright 1995, estate of Helmut Schaffrath.
**kern	**text
*ICvox	*
*M6/8	*
*k[b-e-]	*
*B-:	*
!LO:TX:a:t=Ruhig.	!
!LO:TX:a:t=Aus Niederheſſen. 1890.	!
{8f	Chri-
=1	=1
4b-	-ſtin-
8f	-chen
4b-	gieng
8cc	in
=2	=2
8a	Gar-
8f	-ten,
8r	.
4r}	.
{8f	Drei
=3	=3
4b-	Ro-
8f	-ſen
4b-	ʒu
8cc	er-
=4	=4
8a	-war-
8f	-ten,
8r	.
4r}	.
{8f	da
=5	=5
4f	hat-
8dd	-te
4dd	ſie
8cc	am
=6	=6
4b-	Himmel
8d	ge-
4f}	-ſehn,
{8b-	daß
=7	=7
4a	ſie
8e-	im
4e-	Rhein
8g	ſollt
=8	=8
4g	un-
8f	-ter-
4d}	-gehn.
==	==
!!!AGN: Sage, Maerchen -, Zauber - Lied, Ballade ?
!!!ONB: ESAC (Essen Associative Code) Database: ERK1
!!!AMT: compound duple
!!!AIN: vox
!!!EED: Helmut Schaffrath
!!!EEV: 1.0
!!!GTL: Nachtklaenge der Goettersage (Zaubermaeren)
!!!URL-scan: https://rosdok.uni-rostock.de/mcrviewer/recordIdentifier/rosdok_ppn745146120/iview2/phys_0079.iview2?x=-4.404412318552431&y=685.0012116836151&scale=0.645690413860662&rotation=0&layout=singlePageLayout&logicalDiv=log_0009
!!!ENC: Anna Maria Matuszewska
!!!EEV: 2024/22/11
*-	*-
